!!!!SEGMENT: pl-kk--kk-i-3--007-007_anonim--officium-secundum-ave-maria.krn
!!!cenid: 15xx:595
!!!COM: Anonim
!!!COM-rismID: pe30004985
!!!CDT:
!!!CNT:
!!!OPR: Officium Secundum
!!!OTL: Ave maria
!!!OMV: 007
!!!PDT:
!!!AGN:
!!!SMS-siglum: PL-Kk
!!!SMS-shelfmark: Kk.I.3
!!!SMS-shelfwork: 007-007 M
!!!SMS-variant:
!!!SMS-altvar:
!!!NIFC-rismSourceID: 1001145493
!!!NIFC-rismChildID: 1001145493
!!!NIFC-islandoraID: pl-kk:1170
!!!URL-pdf-islandora: https://repozytorium.nifc.pl/islandora/object/pl-kk%3A1170/datastream/PDF/view
!!!URL-scan: https://polish.musicsources.pl/pl/lokalizacje/galeria/rekopisy/5919 @EN{Scan on Polish Music Sources Website} @PL{Skany w portalu Dziedzictwo Muzyki Polskiej w otwartym dostępie}
!!!ONB-nifc: UWAGA: Discantus (s. 36r-37r, skan 0038-0039), Tenor (s. 27r-v, skan 0199-0200), Bassus (s. 34r-35r, skan 0337-0338). Następna część: Sanctus
!!!AIN: 1 bass 1 soprn 1 tenor
!!!key:
**kern	**text	**kern	**neume	**text	**kern	**text
*part3	*part3	*part2	*	*part2	*part1	*part1
*staff3	*staff3	*staff2	*	*staff2	*staff1	*staff1
*I"Bassus	*	*I"Tenor	*	*	*I"Discantus	*
*I'B	*	*I'T	*	*	*I'S	*
*ICvox	*	*ICvox	*	*	*ICvox	*
*Ibass	*	*Itenor	*	*	*Isoprn	*
*clefF4	*	*clefF3	*	*	*clefC3	*
*k[]	*	*k[]	*	*	*k[]	*
*C:	*	*C:	*	*	*C:	*
*yyM2/1	*	*yyM2/1	*	*	*yyM2/1	*
=1	=1	=1	=1	=1	=1	=1
!!LO:TX:t=P:problem: brak możliwości zapisu w głosie T wysokości dźwięków bez wartości rytmicznych oraz zapisu **Xlig	!	!	!	!	!	!
*lig	*	*	*	*	*lig	*
1F	A-	1F	punctum	[A]-	1f	A-
1C	.	1G	punctum	.	1e	.
*Xlig	*	*	*	*	*Xlig	*
=2	=2	=2	=2	=2	=2	=2
*lig	*	*lig	*	*	*	*
1F	.	1A	clivis	.	2c\	.
.	.	.	.	.	2d\	.
1E	.	1G	.	.	1e	.
*Xlig	*	*Xlig	*	*	*	*
=3	=3	=3	=3	=3	=3	=3
*	*	*lig	*	*	*	*
1D	.	1A	clivis	.	0f	.
2D\	.	1F	.	.	.	.
1F	.	.	.	.	.	.
*	*	*Xlig	*	*	*	*
=4	=4	=4	=4	=4	=4	=4
*	*	*lig	*	*	*	*
.	.	1A	clivis	.	2d\	.
2C/	.	.	.	.	2e\	.
1D	.	1F	.	.	1f	.
*	*	*Xlig	*	*	*	*
=5	=5	=5	=5	=5	=5	=5
1C	.	1G	virga	.	1e	.
1F	.	1F	punctum	.	2c\	.
.	.	.	.	.	1d	.
=6	=6	=6	=6	=6	=6	=6
1G	.	1E	punctum	.	.	.
.	.	.	.	.	2c\	.
*	*	*lig	*	*	*	*
1F	.	1D	bistropha	.	0d	.
=7	=7	=7	=7	=7	=7	=7
*custos:D	*	*	*	*	*	*
1F	.	1D	.	.	.	.
*	*	*Xlig	*	*	*	*
*	*	*	*	*	*custos:d	*
!LO:LB:g=original	!	!	!	!	!	!
0D	.	1F	virga	.	0d	.
!	!	!	!	!	!LO:LB:g=original	!
=8	=8	=8	=8	=8	=8	=8
.	.	1F	punctum	.	.	.
2GG/	.	1G	punctum	.	2d\	.
2G\	.	.	.	.	2e\	.
=9	=9	=9	=9	=9	=9	=9
*	*	*lig	*	*	*	*
2F\	.	1A	clivis	.	1f	.
2D\	.	.	.	.	.	.
1F	.	1F	.	.	2c\	.
.	.	.	.	.	2d\	.
*	*	*Xlig	*	*	*	*
=10	=10	=10	=10	=10	=10	=10
2C/	.	1G	punctum	.	1e	.
2E\	.	.	.	.	.	.
*	*	*lig	*	*	*lig	*
1D	.	1A	clivis	.	1f	.
=11	=11	=11	=11	=11	=11	=11
2E\	.	1G	.	.	1e	.
2C/	.	.	.	.	.	.
*	*	*Xlig	*	*	*Xlig	*
2D\	.	1F	punctum	.	2f\	.
2F\	.	.	.	.	2d\	.
=12	=12	=12	=12	=12	=12	=12
1E	.	1G	punctum	.	2e\	.
.	.	.	.	.	1g	.
1D	.	1A	virga	.	.	.
.	.	.	.	.	2f\	.
=13	=13	=13	=13	=13	=13	=13
2GG/	-ve,	1G	punctum	-ve	2g\	-ve,
1G	Ma-	.	.	.	1d	Ma-
.	.	1G	punctum	Ma-	.	.
*custos:D	*	*	*	*	*	*
2E\	.	.	.	.	2c\	.
!LO:LB:g=original	!	!	!	!	!	!
=14	=14	=14	=14	=14	=14	=14
*	*	*custos:c	*	*	*	*
1D	.	1A	virga	.	1d	.
!	!	!LO:LB:g=original	!	!	!	!
*	*	*lig	*	*	*	*
1A	.	1c	clivis	-ri-	2e\	.
*	*	*	*	*	*custos:g	*
.	.	.	.	.	2f\	.
!	!	!	!	!	!LO:LB:g=original	!
=15	=15	=15	=15	=15	=15	=15
1G	.	1B	.	.	1g	.
*	*	*Xlig	*	*	*	*
1C	.	1c	virga	.	1e	-ri-
=16	=16	=16	=16	=16	=16	=16
*lig	*	*	*	*	*	*
1F	.	1A	punctum	.	2c\	.
.	.	.	.	.	1f	.
1C	.	1G	punctum	.	.	.
.	.	.	.	.	2e\	.
*Xlig	*	*	*	*	*	*
=17	=17	=17	=17	=17	=17	=17
1D	.	1F	punctum	.	1f	-a,
2C/	.	1G	punctum	.	2e\	.
2E\	.	.	.	.	2g\	.
=18	=18	=18	=18	=18	=18	=18
1D	.	1A	punctum	.	1f	.
*	*	*lig	*	*	*	*
2C/	.	1c	climacus	.	0e	.
2AA/	-ri-	.	.	.	.	.
=19	=19	=19	=19	=19	=19	=19
1AA	.	1A	.	.	.	.
1D	.	1F	.	.	0d	.
*	*	*Xlig	*	*	*	*
=20	=20	=20	=20	=20	=20	=20
1GG	-a,	1G	virga	-a,	.	.
2GG/	.	1G	punctum	gra-	2d\	.
*custos:BB	*	*	*	*	*	*
2C/	gra-	.	.	.	2c\	gra-
!LO:LB:g=original	!	!	!	!	!	!
=21	=21	=21	=21	=21	=21	=21
*	*	*lig	*	*	*	*
2BB/	.	1G	clivis	.	2d\	.
2C/	.	.	.	.	2e\	.
1D	.	1D	.	.	1d	.
*	*	*Xlig	*	*	*	*
=22	=22	=22	=22	=22	=22	=22
*	*	*lig	*	*	*	*
2AA/	.	1F	clivis	.	2c\	.
*	*	*	*	*	*custos:e	*
1D	.	.	.	.	2d\	.
!	!	!	!	!	!LO:LB:g=original	!
.	.	1E	.	.	1e	.
2C/	.	.	.	.	.	.
*	*	*Xlig	*	*	*	*
=23	=23	=23	=23	=23	=23	=23
*	*	*lig	*	*	*	*
2F\	.	1F	clivis	.	2c\	.
2D\	.	.	.	.	2d\	.
0A	.	1D	.	.	0f	.
*	*	*Xlig	*	*	*	*
=24	=24	=24	=24	=24	=24	=24
.	.	1D	punctum	.	.	.
1G	.	1E	punctum	.	1e	.
=25	=25	=25	=25	=25	=25	=25
1F	.	1F	punctum	.	1d	.
1E	.	1G	virga	.	1e	.
=26	=26	=26	=26	=26	=26	=26
1D	.	1F	punctum	-ci-	1f	.
1C	.	1G	virga	.	1e	.
=27	=27	=27	=27	=27	=27	=27
2GG/	-ci-	1G	punctum	-a	2d\	-ci-
2C/	-a	.	.	.	2e\	.
2BB/	ple-	1G	punctum	ple-	2d\	-a
2E\	.	.	.	.	1g	ple-
=28	=28	=28	=28	=28	=28	=28
*	*	*lig	*	*	*	*
*custos:GG	*	*	*	*	*	*
1D	-na,	1A	clivis	.	.	.
.	.	.	.	.	2f\	.
!LO:LB:g=original	!	!	!	!	!	!
1GG	.	1G	.	.	1g	-na,
*	*	*Xlig	*	*	*	*
=29	=29	=29	=29	=29	=29	=29
*	*	*custos:A	*	*	*	*
2C/	do-	1G	punctum	-na,	1g	do-
2E\	.	.	.	.	.	.
!	!	!LO:LB:g=original	!	!	!	!
1D	.	1A	punctum	do-	1f	.
=30	=30	=30	=30	=30	=30	=30
*	*	*	*	*	*custos:d	*
2AA/	.	1c	virga	.	1e	.
1A	.	.	.	.	.	.
!	!	!	!	!	!LO:LB:g=original	!
.	.	1B	punctum	.	1d	.
2G\	.	.	.	.	.	.
=31	=31	=31	=31	=31	=31	=31
1A	.	1A	punctum	.	2c\	.
.	.	.	.	.	1f	.
2D\	.	1d	virga	.	.	.
2F\	.	.	.	.	2d\	.
=32	=32	=32	=32	=32	=32	=32
1E	.	1c	punctum	.	1e	.
1D	.	1B	punctum	.	0f	.
=33	=33	=33	=33	=33	=33	=33
1F	.	1A	punctum	.	.	.
*	*	*lig	*	*	*	*
2C/	.	1c	clivis	.	2e\	.
2F\	.	.	.	.	2f\	.
=34	=34	=34	=34	=34	=34	=34
1G	.	1G	.	.	2d\	.
.	.	.	.	.	2e\	.
*	*	*Xlig	*	*	*	*
1F	.	1A	punctum	.	0c	.
=35	=35	=35	=35	=35	=35	=35
1E	.	1c	virga	.	.	.
*	*	*	*	*	*lig	*
*custos:F	*	*	*	*	*	*
1D	.	1B	punctum	.	1d	.
!LO:LB:g=original	!	!	!	!	!	!
=36	=36	=36	=36	=36	=36	=36
0F	.	1A	punctum	.	1c	.
*	*	*	*	*	*Xlig	*
.	.	1d	virga	.	1f	.
=37	=37	=37	=37	=37	=37	=37
1E	.	1c	punctum	.	2g\	.
.	.	.	.	.	2c\	.
1D	.	1B	punctum	.	1d	.
=38	=38	=38	=38	=38	=38	=38
1F	.	1A	punctum	.	1c	.
*	*	*lig	*	*	*	*
*	*	*	*	*	*custos:e	*
1C	.	1c	clivis	.	0g	.
!	!	!	!	!	!LO:LB:g=original	!
=39	=39	=39	=39	=39	=39	=39
2C/	.	1G	.	.	.	.
1G	.	.	.	.	.	.
*	*	*Xlig	*	*	*	*
.	.	1A	punctum	.	2e\	.
2F\	.	.	.	.	2f\	.
=40	=40	=40	=40	=40	=40	=40
1G	.	1B	punctum	.	1d	.
*	*	*lig	*	*	*	*
1C	.	1c	clivis	.	0e	-mi-
=41	=41	=41	=41	=41	=41	=41
2E\	.	1G	.	.	.	.
2C/	.	.	.	.	.	.
*	*	*Xlig	*	*	*	*
1D	.	1F	punctum	-mi-	1d	-nus
=42	=42	=42	=42	=42	=42	=42
1GG	-mi-	1G	virga	-nus	1d	te-
2GG/	-nus	1G	punctum	.	2d\	.
*custos:BB	*	*	*	*	*	*
1C	te-	.	.	.	1e	.
!LO:LB:g=original	!	!	!	!	!	!
=43	=43	=43	=43	=43	=43	=43
*	*	*lig	*	*	*	*
.	.	1G	bistropha	.	.	.
2BB/	.	.	.	.	2d\	.
2C/	.	1G	.	te-	2e\	.
1GG	.	.	.	.	1d	.
*	*	*Xlig	*	*	*	*
=44	=44	=44	=44	=44	=44	=44
.	.	1E	punctum	.	.	.
1G	.	.	.	.	2c\	.
*	*	*custos:E	*	*	*	*
.	.	1D	punctum	.	1d	.
2F\	.	.	.	.	.	.
!	!	!LO:LB:g=original	!	!	!	!
*	*	*clefC4	*	*	*	*
=45	=45	=45	=45	=45	=45	=45
2G\	.	1E	punctum	.	2B/	.
1C	.	.	.	.	1e	.
.	.	1G	virga	.	.	.
2BB/	.	.	.	.	2d\	.
=46	=46	=46	=46	=46	=46	=46
2C/	.	1G	punctum	.	2c\	.
*	*	*	*	*	*custos:e	*
2BB/	.	.	.	.	2d\	.
!	!	!	!	!	!LO:LB:g=original	!
2AA/	.	1A	virga	.	2e\	.
1D	.	.	.	.	2f\	.
=47	=47	=47	=47	=47	=47	=47
*	*	*	*	*	*lig	*
.	.	1G	punctum	.	1e	.
2C/	.	.	.	.	.	.
2D\	.	1F	punctum	.	1d	.
2F\	.	.	.	.	.	.
*	*	*	*	*	*Xlig	*
=48	=48	=48	=48	=48	=48	=48
1E	.	1G	punctum	.	2e\	.
.	.	.	.	.	1g	.
1D	.	1A	virga	.	.	.
.	.	.	.	.	2f\	.
=49	=49	=49	=49	=49	=49	=49
*custos:G	*	*	*	*	*	*
1GG	-cu(m)	1G	punctum	-cu(m)	1g	-cu(m)
!LO:LB:g=original	!	!	!	!	!	!
1G	be-	1G	punctum	be-	1g	be-
=50	=50	=50	=50	=50	=50	=50
1F	-ne-	1c	punctum	-ne-	1a	-ne-
2F\	-di-	1c	punctum	-di-	2a\	-di-
2E\	.	.	.	.	2g\	.
=51	=51	=51	=51	=51	=51	=51
1D	.	1d	.punctum	.	1f	.
*	*	*lig	*	*	*	*
1C	.	1e	clivis	.	2e\	.
.	.	.	.	.	1c	.
=52	=52	=52	=52	=52	=52	=52
1G	.	1d	.	.	.	.
.	.	.	.	.	2B/	.
*	*	*Xlig	*	*	*	*
1E	.	1c	punctum	-cta	1c	.
=53	=53	=53	=53	=53	=53	=53
*	*	*lig	*	*	*	*
*	*	*	*	*	*custos:A	*
2D\	-cta	1d	clivis	.	1B	.
2BB/	.	.	.	.	.	.
!	!	!	!	!	!LO:LB:g=original	!
2C/	.	1c	.	.	2A/	.
2BB/	.	.	.	.	1G	.
*	*	*Xlig	*	*	*	*
=54	=54	=54	=54	=54	=54	=54
*	*	*lig	*	*	*	*
1AA	.	1c	clivis	tu	.	.
.	.	.	.	.	2F/	-cta
2GG/	.	1B	.	.	2G/	.
2G\	.	.	.	.	2B/	.
*	*	*Xlig	*	*	*	*
=55	=55	=55	=55	=55	=55	=55
2F\	.	1c	punctum	.	2A/	.
*custos:D	*	*	*	*	*	*
2E\	.	.	.	.	2G/	.
*	*	*lig	*	*	*	*
!LO:LB:g=original	!	!	!	!	!	!
1D	.	1d	climacus	.	0A	tu
=56	=56	=56	=56	=56	=56	=56
1F	tu	1A	.	.	.	.
1E	.	1G	.	.	1B	in
*	*	*Xlig	*	*	*	*
=57	=57	=57	=57	=57	=57	=57
1D	in	1A	punctum	in	1d	mu-
2GG/	mu-	1G	punctum	.	1B	-li-
1G	-li-	.	.	.	.	.
=58	=58	=58	=58	=58	=58	=58
.	.	1c	virga	mu-	1A	.
2F\	-e-	.	.	.	.	.
1G	-ri-	1B	punctum	.	1G	.
=59	=59	=59	=59	=59	=59	=59
*lig	*	*	*	*	*	*
*	*	*custos:d	*	*	*	*
1F	.	1A	punctum	.	1A	-e-
!	!	!LO:LB:g=original	!	!	!	!
1D	.	1d	punctum	-li-	2A/	.
.	.	.	.	.	2B/	-ri-
*Xlig	*	*	*	*	*	*
=60	=60	=60	=60	=60	=60	=60
*	*	*lig	*	*	*	*
1A	.	1c	climacus	-e-	2c\	.
.	.	.	.	.	2A/	.
*	*	*	*	*	*custos:e	*
1G	.	1B	.	.	2B/	.
!	!	!	!	!	!LO:LB:g=original	!
.	.	.	.	.	1e	.
=61	=61	=61	=61	=61	=61	=61
1F	.	1A	.	.	.	.
.	.	.	.	.	2d\	.
*	*	*Xlig	*	*	*lig	*
1E	.	1c	virga	.	1e	.
=62	=62	=62	=62	=62	=62	=62
1G	.	1B	punctum	-ri-	1d	.
*lig	*	*	*	*	*Xlig	*
*	*	*	*	*	*lig	*
1F	.	1A	punctum	.	1f	.
*clefF3	*	*	*	*	*	*
=63	=63	=63	=63	=63	=63	=63
1C	.	1c	virga	-bus	1e	.
*Xlig	*	*	*	*	*Xlig	*
*custos:C	*	*	*	*	*	*
1C	-bus	1c,	punctum	.	1e	-bus
!LO:LB:g=original	!	!	!	!	!	!
=64	=64	=64	=64	=64	=64	=64
1C	et	1G	punctum	et	1e	et
1G	be-	1B	punctum	be-	2d\	.
.	.	.	.	.	1g	be-
=65	=65	=65	=65	=65	=65	=65
1A	-ne-	1c	punctum	.	.	.
.	.	.	.	.	2f\	-ne-
*	*	*lig	*	*	*	*
1G	.	1d	clivis	-ne-	1g	.
=66	=66	=66	=66	=66	=66	=66
1C	-di-	1c	.	.	1e	-di-
*	*	*Xlig	*	*	*	*
1D	.	1A	punctum	-di-	1f	.
=67	=67	=67	=67	=67	=67	=67
*	*	*lig	*	*	*	*
2C/	.	1c	clivis	.	2g\	.
2E/	.	.	.	.	2e\	.
1D	.	1A	.	.	1f	.
*	*	*Xlig	*	*	*	*
=68	=68	=68	=68	=68	=68	=68
2C/	-ctus	1c	virga	.	1e	.
1c	.	.	.	.	.	.
.	.	1G	punctum	-ctus	1d	.
2B\	.	.	.	.	.	.
=69	=69	=69	=69	=69	=69	=69
*	*	*	*	*	*custos:e	*
2c\	.	1A	punctum	.	2c\	.
!	!	!	!	!	!LO:LB:g=original	!
2C/	.	.	.	.	2e\	.
1G	.	1B	punctum	.	1d	.
*clefF4	*	*lig	*	*	*	*
=70	=70	=70	=70	=70	=70	=70
*custos:D	*	*	*	*	*	*
1C	.	1c	clivis	.	2c\	.
.	.	.	.	.	1g	-ctus
!LO:LB:g=original	!	!	!	!	!	!
1D	.	1A	.	.	.	.
.	.	.	.	.	2f\	.
*	*	*Xlig	*	*	*	*
=71	=71	=71	=71	=71	=71	=71
*	*	*lig	*	*	*	*
1GG	fru-	1G	clivis	fru-	2g\	fru-
.	.	.	.	.	1d	.
1D	.	1F	.	.	.	.
.	.	.	.	.	2d\	-ctus
*	*	*Xlig	*	*	*	*
=72	=72	=72	=72	=72	=72	=72
1C	.	1G	punctum	.	1e	.
*	*	*custos:F	*	*	*	*
1F	.	1A	virga	.	1c	.
!	!	!LO:LB:g=original	!	!	!	!
=73	=73	=73	=73	=73	=73	=73
*	*	*lig	*	*	*	*
2F\	.	1F	clivis	.	2c\	.
2D\	.	.	.	.	1d	.
1E	.	1E	.	.	.	.
.	.	.	.	.	2c\	.
*	*	*Xlig	*	*	*	*
=74	=74	=74	=74	=74	=74	=74
1D	-ctus	1F	virga	.	1d	.
0A	ven-	1D	punctum	-ctus	1f	.
=75	=75	=75	=75	=75	=75	=75
.	.	1D	punctum	ven-	1f	.
1G	.	1E	punctum	.	1e	ven-
=76	=76	=76	=76	=76	=76	=76
2F\	.	1F	punctum	.	2d\	.
*	*	*	*	*	*custos:e	*
2A\	.	.	.	.	1f	.
1G	.	1G	punctum	.	.	.
!	!	!	!	!	!LO:LB:g=original	!
.	.	.	.	.	2e\	.
=77	=77	=77	=77	=77	=77	=77
2D\	.	1A	virga	.	2f\	.
2C/	.	.	.	.	1e	.
*	*	*lig	*	*	*	*
*custos:AA	*	*	*	*	*	*
1D	.	1F	clivis	.	.	.
.	.	.	.	.	1d	.
!LO:LB:g=original	!	!	!	!	!	!
=78	=78	=78	=78	=78	=78	=78
1AA	-tris	1E	.	.	.	.
.	.	.	.	.	2c\	.
*	*	*Xlig	*	*	*	*
0A	.	1D	punctum	.	0d	-tris
=79	=79	=79	=79	=79	=79	=79
.	.	1D	punctum	.	.	.
*lig	*	*	*	*	*	*
1G	.	1E	punctum	.	1c	.
=80	=80	=80	=80	=80	=80	=80
1F	.	1F	punctum	.	1d	.
*Xlig	*	*	*	*	*	*
*lig	*	*	*	*	*	*
1E	.	1G	virga	.	1e	.
=81	=81	=81	=81	=81	=81	=81
1D	.	1F	punctum	.	1f	.
*Xlig	*	*lig	*	*	*	*
2AA/	.	1A	clivis	-tris	2e\	.
1D	.	.	.	.	1f	.
=82	=82	=82	=82	=82	=82	=82
.	.	1F	.	.	.	.
2F\	.	.	.	.	2d\	.
*	*	*Xlig	*	*	*	*
2E\	.	1G	virga	.	1e	.
2C/	.	.	.	.	.	.
=83	=83	=83	=83	=83	=83	=83
1E	.	1G	punctum	tu-	1g	.
*	*	*lig	*	*	*	*
1D	tu-	1A	clivis	.	1f	tu-
=84	=84	=84	=84	=84	=84	=84
*	*	*	*	*	*custos:e	*
2GG/	.	1G	.	.	1g	.
1C	.	.	.	.	.	.
!	!	!	!	!	!LO:LB:g=original	!
*	*	*Xlig	*	*	*	*
.	.	[1Gl	.	-i	2e\	.
2BB/	.	.	.	.	2d\	.
=85	=85	=85	=85	=85	=85	=85
0C	.	0G_	.	.	2c\	.
.	.	.	.	.	1e	.
.	.	.	.	.	2e\	-i
=86	=86	=86	=86	=86	=86	=86
!	!	!	!	!	!LO:N:vis=1	!
0GG;	-i	0G]	.	.	0d;	.
==	==	==	==	==	==	==
*-	*-	*-	*-	*-	*-	*-
!!!system-decoration: [(s1,s2,s3)]
!!!RDF**kern: l = terminal long
!!!ENC: Arkadiusz Malec
!!!END: 2022-01-11
!!!ENC: Jan Barakat
!!!END: 2022-01-25
!!!YEC: Copyright 2022 Narodowy Instytut Fryderyka Chopina (https://polishscores.org)
!!!YEM: License CC-BY-4.0 (https://creativecommons.org/licenses/by/4.0)
